( Generated by: laserTest.py @ 2016-07-31 20:59:06.270982 )
( Laser Cut Test Pattern Generator )
(     Speed: 	min = 400.0, 	max = 2000.0, 	count = 5, 	incr = 400.0, 	Varies )
(     Power: 	min = 1000.0, 	max = 10000.0, 	count = 25, 	incr = 375.0, 	Varies )
(     Distance: 	min = 10.0, 	max = 10.0, 	count = 1, 	incr = 0.0, 	Fixed )
(     X Axis -> Power:  25 cuts from 1000.0 to 10000.0 in increments of 375.0 )
(     Y Axis -> Speed:  5 rows of cuts from 400.0 to 2000.0 in increments of 400.0 )
(     Line Height:             20.0mm )
(     Line Width:              0.2mm )
(     Horizontal Line Spacing: 6.25mm )
(     Vertical Line Spacing:   30.0mm )
(     Generating 5 rows with 25 columns of test cuts )
(     Test Pattern Area:  Width = 150.2mm, Height = 140.0mm )
(     Output:    mode = FILE, path = ./speedXpower.gcode )
G21
G90
G00 X0 Y0 Z10.0
M03 S1000.0
G01 X0.0 Y20.0 F400.0
M05
G00 X6.25 Y0.0 Z10.0
M03 S1375.0
G01 X6.25 Y20.0 F400.0
M05
G00 X12.5 Y0.0 Z10.0
M03 S1750.0
G01 X12.5 Y20.0 F400.0
M05
G00 X18.75 Y0.0 Z10.0
M03 S2125.0
G01 X18.75 Y20.0 F400.0
M05
G00 X25.0 Y0.0 Z10.0
M03 S2500.0
G01 X25.0 Y20.0 F400.0
M05
G00 X31.25 Y0.0 Z10.0
M03 S2875.0
G01 X31.25 Y20.0 F400.0
M05
G00 X37.5 Y0.0 Z10.0
M03 S3250.0
G01 X37.5 Y20.0 F400.0
M05
G00 X43.75 Y0.0 Z10.0
M03 S3625.0
G01 X43.75 Y20.0 F400.0
M05
G00 X50.0 Y0.0 Z10.0
M03 S4000.0
G01 X50.0 Y20.0 F400.0
M05
G00 X56.25 Y0.0 Z10.0
M03 S4375.0
G01 X56.25 Y20.0 F400.0
M05
G00 X62.5 Y0.0 Z10.0
M03 S4750.0
G01 X62.5 Y20.0 F400.0
M05
G00 X68.75 Y0.0 Z10.0
M03 S5125.0
G01 X68.75 Y20.0 F400.0
M05
G00 X75.0 Y0.0 Z10.0
M03 S5500.0
G01 X75.0 Y20.0 F400.0
M05
G00 X81.25 Y0.0 Z10.0
M03 S5875.0
G01 X81.25 Y20.0 F400.0
M05
G00 X87.5 Y0.0 Z10.0
M03 S6250.0
G01 X87.5 Y20.0 F400.0
M05
G00 X93.75 Y0.0 Z10.0
M03 S6625.0
G01 X93.75 Y20.0 F400.0
M05
G00 X100.0 Y0.0 Z10.0
M03 S7000.0
G01 X100.0 Y20.0 F400.0
M05
G00 X106.25 Y0.0 Z10.0
M03 S7375.0
G01 X106.25 Y20.0 F400.0
M05
G00 X112.5 Y0.0 Z10.0
M03 S7750.0
G01 X112.5 Y20.0 F400.0
M05
G00 X118.75 Y0.0 Z10.0
M03 S8125.0
G01 X118.75 Y20.0 F400.0
M05
G00 X125.0 Y0.0 Z10.0
M03 S8500.0
G01 X125.0 Y20.0 F400.0
M05
G00 X131.25 Y0.0 Z10.0
M03 S8875.0
G01 X131.25 Y20.0 F400.0
M05
G00 X137.5 Y0.0 Z10.0
M03 S9250.0
G01 X137.5 Y20.0 F400.0
M05
G00 X143.75 Y0.0 Z10.0
M03 S9625.0
G01 X143.75 Y20.0 F400.0
M05
G00 X150.0 Y0.0 Z10.0
M03 S10000.0
G01 X150.0 Y20.0 F400.0
M05
G00 X0 Y30.0 Z10.0
M03 S1000.0
G01 X0.0 Y50.0 F800.0
M05
G00 X6.25 Y30.0 Z10.0
M03 S1375.0
G01 X6.25 Y50.0 F800.0
M05
G00 X12.5 Y30.0 Z10.0
M03 S1750.0
G01 X12.5 Y50.0 F800.0
M05
G00 X18.75 Y30.0 Z10.0
M03 S2125.0
G01 X18.75 Y50.0 F800.0
M05
G00 X25.0 Y30.0 Z10.0
M03 S2500.0
G01 X25.0 Y50.0 F800.0
M05
G00 X31.25 Y30.0 Z10.0
M03 S2875.0
G01 X31.25 Y50.0 F800.0
M05
G00 X37.5 Y30.0 Z10.0
M03 S3250.0
G01 X37.5 Y50.0 F800.0
M05
G00 X43.75 Y30.0 Z10.0
M03 S3625.0
G01 X43.75 Y50.0 F800.0
M05
G00 X50.0 Y30.0 Z10.0
M03 S4000.0
G01 X50.0 Y50.0 F800.0
M05
G00 X56.25 Y30.0 Z10.0
M03 S4375.0
G01 X56.25 Y50.0 F800.0
M05
G00 X62.5 Y30.0 Z10.0
M03 S4750.0
G01 X62.5 Y50.0 F800.0
M05
G00 X68.75 Y30.0 Z10.0
M03 S5125.0
G01 X68.75 Y50.0 F800.0
M05
G00 X75.0 Y30.0 Z10.0
M03 S5500.0
G01 X75.0 Y50.0 F800.0
M05
G00 X81.25 Y30.0 Z10.0
M03 S5875.0
G01 X81.25 Y50.0 F800.0
M05
G00 X87.5 Y30.0 Z10.0
M03 S6250.0
G01 X87.5 Y50.0 F800.0
M05
G00 X93.75 Y30.0 Z10.0
M03 S6625.0
G01 X93.75 Y50.0 F800.0
M05
G00 X100.0 Y30.0 Z10.0
M03 S7000.0
G01 X100.0 Y50.0 F800.0
M05
G00 X106.25 Y30.0 Z10.0
M03 S7375.0
G01 X106.25 Y50.0 F800.0
M05
G00 X112.5 Y30.0 Z10.0
M03 S7750.0
G01 X112.5 Y50.0 F800.0
M05
G00 X118.75 Y30.0 Z10.0
M03 S8125.0
G01 X118.75 Y50.0 F800.0
M05
G00 X125.0 Y30.0 Z10.0
M03 S8500.0
G01 X125.0 Y50.0 F800.0
M05
G00 X131.25 Y30.0 Z10.0
M03 S8875.0
G01 X131.25 Y50.0 F800.0
M05
G00 X137.5 Y30.0 Z10.0
M03 S9250.0
G01 X137.5 Y50.0 F800.0
M05
G00 X143.75 Y30.0 Z10.0
M03 S9625.0
G01 X143.75 Y50.0 F800.0
M05
G00 X150.0 Y30.0 Z10.0
M03 S10000.0
G01 X150.0 Y50.0 F800.0
M05
G00 X0 Y60.0 Z10.0
M03 S1000.0
G01 X0.0 Y80.0 F1200.0
M05
G00 X6.25 Y60.0 Z10.0
M03 S1375.0
G01 X6.25 Y80.0 F1200.0
M05
G00 X12.5 Y60.0 Z10.0
M03 S1750.0
G01 X12.5 Y80.0 F1200.0
M05
G00 X18.75 Y60.0 Z10.0
M03 S2125.0
G01 X18.75 Y80.0 F1200.0
M05
G00 X25.0 Y60.0 Z10.0
M03 S2500.0
G01 X25.0 Y80.0 F1200.0
M05
G00 X31.25 Y60.0 Z10.0
M03 S2875.0
G01 X31.25 Y80.0 F1200.0
M05
G00 X37.5 Y60.0 Z10.0
M03 S3250.0
G01 X37.5 Y80.0 F1200.0
M05
G00 X43.75 Y60.0 Z10.0
M03 S3625.0
G01 X43.75 Y80.0 F1200.0
M05
G00 X50.0 Y60.0 Z10.0
M03 S4000.0
G01 X50.0 Y80.0 F1200.0
M05
G00 X56.25 Y60.0 Z10.0
M03 S4375.0
G01 X56.25 Y80.0 F1200.0
M05
G00 X62.5 Y60.0 Z10.0
M03 S4750.0
G01 X62.5 Y80.0 F1200.0
M05
G00 X68.75 Y60.0 Z10.0
M03 S5125.0
G01 X68.75 Y80.0 F1200.0
M05
G00 X75.0 Y60.0 Z10.0
M03 S5500.0
G01 X75.0 Y80.0 F1200.0
M05
G00 X81.25 Y60.0 Z10.0
M03 S5875.0
G01 X81.25 Y80.0 F1200.0
M05
G00 X87.5 Y60.0 Z10.0
M03 S6250.0
G01 X87.5 Y80.0 F1200.0
M05
G00 X93.75 Y60.0 Z10.0
M03 S6625.0
G01 X93.75 Y80.0 F1200.0
M05
G00 X100.0 Y60.0 Z10.0
M03 S7000.0
G01 X100.0 Y80.0 F1200.0
M05
G00 X106.25 Y60.0 Z10.0
M03 S7375.0
G01 X106.25 Y80.0 F1200.0
M05
G00 X112.5 Y60.0 Z10.0
M03 S7750.0
G01 X112.5 Y80.0 F1200.0
M05
G00 X118.75 Y60.0 Z10.0
M03 S8125.0
G01 X118.75 Y80.0 F1200.0
M05
G00 X125.0 Y60.0 Z10.0
M03 S8500.0
G01 X125.0 Y80.0 F1200.0
M05
G00 X131.25 Y60.0 Z10.0
M03 S8875.0
G01 X131.25 Y80.0 F1200.0
M05
G00 X137.5 Y60.0 Z10.0
M03 S9250.0
G01 X137.5 Y80.0 F1200.0
M05
G00 X143.75 Y60.0 Z10.0
M03 S9625.0
G01 X143.75 Y80.0 F1200.0
M05
G00 X150.0 Y60.0 Z10.0
M03 S10000.0
G01 X150.0 Y80.0 F1200.0
M05
G00 X0 Y90.0 Z10.0
M03 S1000.0
G01 X0.0 Y110.0 F1600.0
M05
G00 X6.25 Y90.0 Z10.0
M03 S1375.0
G01 X6.25 Y110.0 F1600.0
M05
G00 X12.5 Y90.0 Z10.0
M03 S1750.0
G01 X12.5 Y110.0 F1600.0
M05
G00 X18.75 Y90.0 Z10.0
M03 S2125.0
G01 X18.75 Y110.0 F1600.0
M05
G00 X25.0 Y90.0 Z10.0
M03 S2500.0
G01 X25.0 Y110.0 F1600.0
M05
G00 X31.25 Y90.0 Z10.0
M03 S2875.0
G01 X31.25 Y110.0 F1600.0
M05
G00 X37.5 Y90.0 Z10.0
M03 S3250.0
G01 X37.5 Y110.0 F1600.0
M05
G00 X43.75 Y90.0 Z10.0
M03 S3625.0
G01 X43.75 Y110.0 F1600.0
M05
G00 X50.0 Y90.0 Z10.0
M03 S4000.0
G01 X50.0 Y110.0 F1600.0
M05
G00 X56.25 Y90.0 Z10.0
M03 S4375.0
G01 X56.25 Y110.0 F1600.0
M05
G00 X62.5 Y90.0 Z10.0
M03 S4750.0
G01 X62.5 Y110.0 F1600.0
M05
G00 X68.75 Y90.0 Z10.0
M03 S5125.0
G01 X68.75 Y110.0 F1600.0
M05
G00 X75.0 Y90.0 Z10.0
M03 S5500.0
G01 X75.0 Y110.0 F1600.0
M05
G00 X81.25 Y90.0 Z10.0
M03 S5875.0
G01 X81.25 Y110.0 F1600.0
M05
G00 X87.5 Y90.0 Z10.0
M03 S6250.0
G01 X87.5 Y110.0 F1600.0
M05
G00 X93.75 Y90.0 Z10.0
M03 S6625.0
G01 X93.75 Y110.0 F1600.0
M05
G00 X100.0 Y90.0 Z10.0
M03 S7000.0
G01 X100.0 Y110.0 F1600.0
M05
G00 X106.25 Y90.0 Z10.0
M03 S7375.0
G01 X106.25 Y110.0 F1600.0
M05
G00 X112.5 Y90.0 Z10.0
M03 S7750.0
G01 X112.5 Y110.0 F1600.0
M05
G00 X118.75 Y90.0 Z10.0
M03 S8125.0
G01 X118.75 Y110.0 F1600.0
M05
G00 X125.0 Y90.0 Z10.0
M03 S8500.0
G01 X125.0 Y110.0 F1600.0
M05
G00 X131.25 Y90.0 Z10.0
M03 S8875.0
G01 X131.25 Y110.0 F1600.0
M05
G00 X137.5 Y90.0 Z10.0
M03 S9250.0
G01 X137.5 Y110.0 F1600.0
M05
G00 X143.75 Y90.0 Z10.0
M03 S9625.0
G01 X143.75 Y110.0 F1600.0
M05
G00 X150.0 Y90.0 Z10.0
M03 S10000.0
G01 X150.0 Y110.0 F1600.0
M05
G00 X0 Y120.0 Z10.0
M03 S1000.0
G01 X0.0 Y140.0 F2000.0
M05
G00 X6.25 Y120.0 Z10.0
M03 S1375.0
G01 X6.25 Y140.0 F2000.0
M05
G00 X12.5 Y120.0 Z10.0
M03 S1750.0
G01 X12.5 Y140.0 F2000.0
M05
G00 X18.75 Y120.0 Z10.0
M03 S2125.0
G01 X18.75 Y140.0 F2000.0
M05
G00 X25.0 Y120.0 Z10.0
M03 S2500.0
G01 X25.0 Y140.0 F2000.0
M05
G00 X31.25 Y120.0 Z10.0
M03 S2875.0
G01 X31.25 Y140.0 F2000.0
M05
G00 X37.5 Y120.0 Z10.0
M03 S3250.0
G01 X37.5 Y140.0 F2000.0
M05
G00 X43.75 Y120.0 Z10.0
M03 S3625.0
G01 X43.75 Y140.0 F2000.0
M05
G00 X50.0 Y120.0 Z10.0
M03 S4000.0
G01 X50.0 Y140.0 F2000.0
M05
G00 X56.25 Y120.0 Z10.0
M03 S4375.0
G01 X56.25 Y140.0 F2000.0
M05
G00 X62.5 Y120.0 Z10.0
M03 S4750.0
G01 X62.5 Y140.0 F2000.0
M05
G00 X68.75 Y120.0 Z10.0
M03 S5125.0
G01 X68.75 Y140.0 F2000.0
M05
G00 X75.0 Y120.0 Z10.0
M03 S5500.0
G01 X75.0 Y140.0 F2000.0
M05
G00 X81.25 Y120.0 Z10.0
M03 S5875.0
G01 X81.25 Y140.0 F2000.0
M05
G00 X87.5 Y120.0 Z10.0
M03 S6250.0
G01 X87.5 Y140.0 F2000.0
M05
G00 X93.75 Y120.0 Z10.0
M03 S6625.0
G01 X93.75 Y140.0 F2000.0
M05
G00 X100.0 Y120.0 Z10.0
M03 S7000.0
G01 X100.0 Y140.0 F2000.0
M05
G00 X106.25 Y120.0 Z10.0
M03 S7375.0
G01 X106.25 Y140.0 F2000.0
M05
G00 X112.5 Y120.0 Z10.0
M03 S7750.0
G01 X112.5 Y140.0 F2000.0
M05
G00 X118.75 Y120.0 Z10.0
M03 S8125.0
G01 X118.75 Y140.0 F2000.0
M05
G00 X125.0 Y120.0 Z10.0
M03 S8500.0
G01 X125.0 Y140.0 F2000.0
M05
G00 X131.25 Y120.0 Z10.0
M03 S8875.0
G01 X131.25 Y140.0 F2000.0
M05
G00 X137.5 Y120.0 Z10.0
M03 S9250.0
G01 X137.5 Y140.0 F2000.0
M05
G00 X143.75 Y120.0 Z10.0
M03 S9625.0
G01 X143.75 Y140.0 F2000.0
M05
G00 X150.0 Y120.0 Z10.0
M03 S10000.0
G01 X150.0 Y140.0 F2000.0
M05
G00 X0 Y0 Z10.0